!!!OTL: Die Schlangenkoechin Dove si sta jersira,
!!!ARE: Suedeuropa, Italia, Lombardei
!!!YOR: 4, S. 212
!!    1867 gedruckt
!!!SCT: Q2079T
!!!YEM: Copyright 1995, estate of Helmut Schaffrath.
**kern
*ICvox
*Ivox
*M6/8
*k[b-e-]
*g:
{8d
=1
4g
8g
4g
8a
=2
8b-
8a}
{8g
4g
8a
=3
8b-
8a
8g
8b-
8a
8g
=4
4a
4.r}
{8cc#
=5
4dd
8a
4a
8b-
=6
[2.b-
=7
4b-]
8a
4r}
{8d
=8
4g
8g
4g
8a
=9
8b-
8a}
{8g
4g
8a
=10
8b-
8a
8g
8b-
8a
8g
=11
4.a
4r}
{8dd
=12
4ee-
8a
8a
8b-
8cc
=13
4.cc
4b-}
{8a
=14
4g
8g
4b-
8a
=15
4g
4.r}
==
!!!AGN: Ballade, Mord; Reigen - Tanz, antiphonal
!! Italienische Fassung der Ballade.
!!    Zweite, vierte und letzte Zeile = Refrain.
!!!ONB: ESAC (Essen Associative Code) Database: BALLADE
!!!AMT: compound duple
!!!AIN: vox
!!!EED: Helmut Schaffrath
!!!EEV: 1.0
*-
